X:1
T:The Hands That Were Pierced
T:William Owen Jones, 1921
T:The Hands That Were Pierced
T:Public Domain
T:Public Domain
T:Public Domain
C:William Owen Jones, 1921
Z:Public Domain
%%score ( 1 2 ) ( 3 4 )
L:1/8
M:6/8
K:D
V:1 treble 
V:2 treble 
V:3 bass 
V:4 bass 
V:1
 [FA] | [Fd][^Ec][EB] F[=EG][FA] | [GB]2 [DF] [FA]2 [FB] | [FB][Fc][Fd] [Ec][CE][Fd] | %4
w: 1.~The|hands that were nailed on the|for me, Were pierced|that my soul might His glo-|
w: 2.~The|pain that my Sav- ior once|for me Pro- vid-|ed a- tone- ment and love|
w: 3.~The|em- blem of shame on the|el tree When Je-|sus the Lord died for you|
w: 4.~Not|on- ly His hands and His|and side Were pierced,|but His heart gave a crim-|
 [Ec]2 [DB] [CA]2 [GA] | [Fd][^Ec][EB] [FA][FB]F | [FB]2 [^DA] [EG]2 [=CF] | %7
w: ry see, That gave|me my sight to be- hold|face. That ran- som|
w: so free, So match-|less the grace when my Sav-|died, It gave me|
w: and me, De- liv-|ered my soul from its guilt|shame. His hands were|
w: son tide, So lov-|ing- ly Je- sus gave life|me, ~ When He|
 [CE][CA][DB] [Ec][Ee][Fd] | [Ec]2 [DB] [CA]2 ||"^Refrain" [EG] | [DF][EG][FA] (AB)[Ec] | %11
w: my soul and be- stow His|grace. * *|||
w: the rest of the jus- ti-|fied. The hands|that|were pierced for me, * Were|
w: pierced for me, O praise His|name. * *|||
w: was nailed on Gol- go- tha’s|tree. * *|||
 (D2 D [Fd]2) [Ec] | [DB][Dd][EB] ([FA][EG])[DF] | (C2 D =E2) [CA] | [DF][DG][DA] [DB][Dd][DB] | %15
w: ||||
w: that * * my|* might see, Re- * demp-|tion * * com-|at my dear Sav- ior’s feet,|
w: ||||
w: ||||
 [Ec][Fd][Ge] [Ff]2 A | [GB][Ac][Ad] [Gd]2 [Gc] | (F2 G [Fd]2) |] %18
w: |||
w: Those hands they were pierced|me. * * * *||
w: |||
w: |||
V:2
 x | x3 F x2 | x6 | x6 | x6 | x5 F | x6 | x6 | x5 || x | x3 F2 x | d3- x3 | x6 | E3- =E2 x | x6 | %15
w: |cross||||His||||||||||
w: |bore||||ior|||||pierced|Lord||plete *||
w: |cru-||||and||||||||||
w: |feet||||to||||||||||
 x5 A | x6 | d3- x2 |] %18
w: |||
w: for|||
w: |||
w: |||
V:3
 [D,A,] | [D,A,][D,^G,][D,G,] [D,A,][D,A,][D,A,] | [D,D]2 [D,A,] [D,A,]2 [D,A,] | %3
 [D,A,][C,^A,][B,,B,] [E,^G,][E,=A,][E,A,] | [E,^G,]2 [E,G,] [A,,A,]2 [C,A,] | %5
 [D,A,][D,^G,][D,G,] [D,A,][D,A,][D,A,] | [^D,A,]2 [B,,B,] [E,B,]2 [D,A,] | %7
 [E,A,][E,A,][E,A,] [E,A,][C,A,][E,A,] | [E,A,]2 [E,^G,] [A,,A,]2 || [A,,A,] | %10
 [D,A,][D,A,][D,A,] [D,A,]2 [C,^A,] | [B,,B,]2 [B,,F,] [B,,B,]2 [F,^A,] | %12
 [G,B,][G,B,][G,C] ([D,D][C,A,])[D,A,] | ([A,,A,]2 [B,,^G,] [C,A,]2) [A,,A,] | %14
 [D,A,][E,A,][F,A,] G,[G,B,][G,B,] | [F,^A,]B,[=A,C] D2 [F,D] | [G,D][G,E][F,D] [E,B,]2 A, | %17
 (A,2 B, [D,A,]2) |] %18
V:4
 x | x6 | x6 | x6 | x6 | x6 | x6 | x6 | x5 || x | x6 | x6 | x6 | x6 | x3 G, x2 | x B, D2 x2 | %16
 x5 A, | D,3- x2 |] %18

